src/lib/images/logo/polygon.svg

<svg width="293" height="258" viewBox="0 0 293 258" fill="none" xmlns="http://www.w3.org/2000/svg">
<path d="M221.612 78.7104C216.263 75.6537 209.385 75.6537 203.272 78.7104L160.478 103.928L131.439 119.976L89.409 145.194C84.0597 148.251 77.1821 148.251 71.0687 145.194L38.209 125.325C32.8597 122.269 29.0388 116.155 29.0388 109.278V71.0687C29.0388 64.9552 32.0955 58.8418 38.209 55.0209L71.0687 35.9164C76.4179 32.8597 83.2955 32.8597 89.409 35.9164L122.269 55.7851C127.618 58.8418 131.439 64.9552 131.439 71.8328V97.0507L160.478 80.2388V54.2567C160.478 48.1433 157.421 42.0298 151.307 38.209L90.1731 2.29254C84.8239 -0.764179 77.9463 -0.764179 71.8328 2.29254L9.17015 38.9731C3.05672 42.0298 0 48.1433 0 54.2567V126.09C0 132.203 3.05672 138.316 9.17015 142.137L71.0687 178.054C76.4179 181.11 83.2955 181.11 89.409 178.054L131.439 153.6L160.478 136.788L202.507 112.334C207.857 109.278 214.734 109.278 220.848 112.334L253.707 131.439C259.057 134.496 262.878 140.609 262.878 147.487V185.696C262.878 191.809 259.821 197.922 253.707 201.743L221.612 220.848C216.263 223.904 209.385 223.904 203.272 220.848L170.412 201.743C165.063 198.687 161.242 192.573 161.242 185.696V161.242L132.203 178.054V203.272C132.203 209.385 135.26 215.499 141.373 219.319L203.272 255.236C208.621 258.293 215.499 258.293 221.612 255.236L283.51 219.319C288.86 216.263 292.681 210.149 292.681 203.272V130.675C292.681 124.561 289.624 118.448 283.51 114.627L221.612 78.7104Z" fill="#8247E5"/>
</svg>

<svg fill="none" height="258" width="293" xmlns="http://www.w3.org/2000/svg"><path d="M221.612 78.71c-5.349-3.056-12.227-3.056-18.34 0l-42.794 25.218-29.039 16.048-42.03 25.218c-5.35 3.057-12.227 3.057-18.34 0l-32.86-19.869c-5.35-3.056-9.17-9.17-9.17-16.047v-38.21c0-6.113 3.056-12.226 9.17-16.047l32.86-19.105c5.349-3.056 12.227-3.056 18.34 0l32.86 19.87c5.349 3.056 9.17 9.17 9.17 16.047V97.05l29.039-16.812V54.257c0-6.114-3.057-12.227-9.171-16.048L90.173 2.293c-5.35-3.057-12.227-3.057-18.34 0L9.17 38.973C3.057 42.03 0 48.143 0 54.257v71.833c0 6.113 3.057 12.226 9.17 16.047l61.899 35.917c5.349 3.056 12.227 3.056 18.34 0l42.03-24.454 29.039-16.812 42.029-24.454c5.35-3.056 12.227-3.056 18.341 0l32.859 19.105c5.35 3.057 9.171 9.17 9.171 16.048v38.209c0 6.113-3.057 12.226-9.171 16.047l-32.095 19.105c-5.349 3.056-12.227 3.056-18.34 0l-32.86-19.105c-5.349-3.056-9.17-9.17-9.17-16.047v-24.454l-29.039 16.812v25.218c0 6.113 3.057 12.227 9.17 16.047l61.899 35.917c5.349 3.057 12.227 3.057 18.34 0l61.898-35.917c5.35-3.056 9.171-9.17 9.171-16.047v-72.597c0-6.114-3.057-12.227-9.171-16.048z" fill="#8247e5"/></svg>
